X:1
T:Title
%%score { ( 1 4 ) | ( 2 3 ) }
L:1/8
M:4/4
K:C
V:1 treble nm="Grand Piano"
V:4 treble 
V:2 bass 
V:3 bass 
V:1
 z4 z2[Q:1/4=106] [CE]>[DF] | [EG]2 [Gc]2 cBAB | [Ec]2 [EG]4 [CE]>[DF] | %3
 [EG]2 [EG]2 [FA][EG][DF]G |[M:3/4] E6 |[M:1/4] E>[DF] |[M:4/4] [EG]2 [Gc]2 cBAB | %7
 [Ec]2 [EG]4 [EG]>[EG] | [FA]2 [Gc]2 [^Fd]2 [Fc]2 |[M:3/4] B6 |[M:1/4] B>d |[M:4/4] f6 z2 | c6 z2 | %13
 B2 c2 d2 c>d |[M:3/4] [Ge]6 |[M:1/4] B>d |[M:4/4] f6 z2 | c6 z2 | B2 c2 d2 A>B |[M:3/4] c6 |] %20
V:2
 z4 z2 [C,G,]>[C,G,] | [C,C]2 [E,C]2[K:treble] [G,DF]2 [G,DF]2 | [C,C]2 [C,C]4 [C,G,]>[C,G,] | %3
 [C,C]2 [C,G,]2 [G,,G,]2 z E |[M:3/4] [C,G,C]6 |[M:1/4] [C,G,C]>[C,G,] | %6
[M:4/4] [C,C]2 [E,C]2[K:treble] [G,DF]2 [G,DF]2 | [C,C]2 [C,C]4 [C,C]>[C,C] | %8
 [F,C]2 [E,C]2 [D,A,]2 [D,D]2 |[M:3/4][K:treble] [G,DG]6 |[M:1/4] z2 | %11
[M:4/4] z2 [G,D]>[G,C] [G,B,]2 z2 | z2[K:bass] [C,G,]>[C,A,] [C,G,]2 [C,C]>[E,C] | %13
 [G,DG]2 [G,EG]2 [G,FG]2 E>B, |[M:3/4][K:bass] [C,C]>C, E,>G, z2 |[M:1/4] z2 | %16
[M:4/4] z2 [G,D]>[G,C] [G,B,]2 z2 | z2 [C,G,]>[C,A,] [C,G,]2 [C,C]>[E,C] | %18
 [G,DG]2 [G,EG]2 [G,FG]2 [G,CF]>[G,F] |[M:3/4][K:bass] [C,G,]2 [C,A,][C,A,] [C,G,]2 |] %20
V:3
 x8 | x4[K:treble] x4 | x8 | z4 z2 [G,,G,]2 |[M:3/4] x6 |[M:1/4] x2 |[M:4/4] x4[K:treble] x4 | x8 | %8
 x8 |[M:3/4][K:treble] x6 |[M:1/4] x2 |[M:4/4] x8 | x2[K:bass] x6 | z4 z2 [G,G]2 | %14
[M:3/4][K:bass] x6 |[M:1/4] x2 |[M:4/4] x8 | x8 | x8 |[M:3/4][K:bass] x6 |] %20
V:4
 x8 | x8 | x8 | x8 |[M:3/4] x6 |[M:1/4] x2 |[M:4/4] x8 | x8 | x8 |[M:3/4] x6 |[M:1/4] x2 | %11
[M:4/4] z2 B>A G2 e3/2(3:2:2d/d/4 | z2 E>F E2 [EG]>[Gc] | x8 |[M:3/4] z z/ C/ C>C C2 |[M:1/4] x2 | %16
[M:4/4] z2 B>A G2 e3/2(3:2:2d/d/4 | z2 E>F E2 [EG]>[Gc] | x8 |[M:3/4] E2 FF E2 |] %20

